dist/img/svg/icon-footer-fb.svg

<svg width="28" height="28" viewBox="0 0 28 28" fill="none" xmlns="http://www.w3.org/2000/svg">
<circle cx="14" cy="14" r="14" fill="#25878A"/>
<path d="M12.1974 17.1712C12.1974 16.324 12.1824 15.4768 12.2034 14.6311C12.2139 14.2121 12.1104 14.0191 11.641 14.0281C10.7725 14.0447 10.771 14.0191 10.7695 13.1146C10.7695 12.9835 10.7695 12.8508 10.7695 12.7197C10.771 11.7609 10.771 11.7429 11.6965 11.7233C12.0999 11.7142 12.2094 11.5454 12.2034 11.173C12.1959 10.6484 12.1689 10.1239 12.2889 9.60077C12.5364 8.50937 13.1918 7.85363 14.2822 7.65314C15.0982 7.50391 15.9231 7.5431 16.7465 7.5431C17.111 7.5431 17.24 7.72098 17.228 8.07071C17.213 8.50334 17.207 8.93749 17.2295 9.36862C17.249 9.75453 17.0945 9.92487 16.7135 9.91884C16.3955 9.91432 16.0776 9.92638 15.7596 9.93844C15.3756 9.952 15.1746 10.151 15.1761 10.5429C15.1761 10.5987 15.1731 10.656 15.1701 10.7118C15.1386 11.7157 15.1386 11.7157 16.1181 11.7157C17.3 11.7157 17.3 11.7157 17.132 12.9036C16.973 14.0297 16.973 14.0538 15.8391 14.0266C15.3291 14.0146 15.1491 14.1668 15.1566 14.6929C15.1836 16.3858 15.1521 18.0802 15.1746 19.773C15.1806 20.2871 15.0052 20.4876 14.4907 20.4589C13.8938 20.4273 13.2923 20.4453 12.6939 20.4499C12.3399 20.4529 12.1914 20.2946 12.1959 19.9343C12.2079 19.0133 12.2004 18.0907 12.2004 17.1682C12.1989 17.1712 12.1974 17.1712 12.1974 17.1712Z" fill="white"/>
</svg>

<svg width="28" height="28" viewBox="0 0 28 28" fill="none" xmlns="http://www.w3.org/2000/svg"><circle cx="14" cy="14" r="14" fill="#25878A"/><path d="M12.197 17.171c0-.847-.015-1.694.006-2.54.01-.419-.093-.612-.562-.603-.868.017-.87-.009-.871-.913v-.395c.001-.96.001-.977.927-.997.403-.009.512-.178.506-.55-.007-.525-.034-1.05.086-1.572.247-1.092.903-1.747 1.993-1.948.816-.15 1.641-.11 2.465-.11.364 0 .493.178.481.528-.015.432-.021.866.002 1.298.019.386-.136.556-.517.55-.318-.005-.635.007-.953.02-.384.013-.585.212-.584.604 0 .056-.003.113-.006.169-.031 1.004-.031 1.004.948 1.004 1.182 0 1.182 0 1.014 1.188-.159 1.126-.159 1.15-1.293 1.123-.51-.012-.69.14-.682.666.027 1.693-.005 3.387.018 5.08.006.514-.17.715-.684.686-.597-.032-1.199-.014-1.797-.01-.354.004-.503-.154-.498-.515.012-.92.004-1.843.004-2.766-.001.003-.003.003-.003.003z" fill="#fff"/></svg>
